app/images/icon-white-provider/mails.svg

<?xml version="1.0" ?><svg height="331.46899" id="svg2439" version="1.0" width="439.371" xmlns="http://www.w3.org/2000/svg" xmlns:cc="http://creativecommons.org/ns#" xmlns:dc="http://purl.org/dc/elements/1.1/" xmlns:inkscape="http://www.inkscape.org/namespaces/inkscape" xmlns:rdf="http://www.w3.org/1999/02/22-rdf-syntax-ns#" xmlns:sodipodi="http://sodipodi.sourceforge.net/DTD/sodipodi-0.dtd" xmlns:svg="http://www.w3.org/2000/svg"><defs id="defs2441"><marker id="ArrowEnd" markerHeight="3" markerUnits="strokeWidth" markerWidth="4" orient="auto" refX="0" refY="5" viewBox="0 0 10 10"><path d="M 0,0 L 10,5 L 0,10 L 0,0 z" id="path2444"/></marker><marker id="ArrowStart" markerHeight="3" markerUnits="strokeWidth" markerWidth="4" orient="auto" refX="10" refY="5" viewBox="0 0 10 10"><path d="M 10,0 L 0,5 L 10,10 L 10,0 z" id="path2447"/></marker></defs><g id="g2449" transform="translate(-145.3305,-145.3305)"><path d="M 569.374,461.472 L 569.374,160.658 L 160.658,160.658 L 160.658,461.472 L 569.374,461.472 z" id="path2451" style="fill:none;stroke:#FFFFFF;stroke-width:30.65500069"/><path id="path2453" style="fill:none;stroke:#FFFFFF;stroke-width:30.65500069"/><path d="M 164.46,164.49 L 340.78,343.158 C 353.849,356.328 377.63,356.172 390.423,343.278 L 566.622,165.928" id="path2455" style="fill:none;stroke:#FFFFFF;stroke-width:30.65500069"/><path d="M 170.515,451.566 L 305.61,313.46" id="path2457" style="fill:none;stroke:#FFFFFF;stroke-width:30.65500069"/><path d="M 557.968,449.974 L 426.515,315.375" id="path2459" style="fill:none;stroke:#FFFFFF;stroke-width:30.65500069"/></g></svg>

<svg xmlns="http://www.w3.org/2000/svg" viewBox="0 0 439.37 331.47"><g transform="translate(-145.33-145.33)" fill="none" stroke="#fff" stroke-width="30.655"><path d="m569.37 461.47v-300.81h-408.72v300.81h408.72z"/><path d="m164.46 164.49l176.32 178.67c13.07 13.17 36.85 13.01 49.643.12l176.2-177.35"/><path d="m170.51 451.57l135.1-138.11"/><path d="m557.97 449.97l-131.45-134.6"/></g></svg>
